X: 3612
T: Bill Harte's
R: jig
M: 6/8
K: Adorian
|:A3 e3|fed e3|A3 e3|fed BdA|
A3 e3|fed efg|a2f g2e|fed BdA:|
|:a2f g2e|fed efg|a2f g2e|fed BdA|
agf gfe|fed efg|a3 g2e|fed BdA:|

